X:1
T:Noricum, 77.77.77
T:Noricum, 77.77.77
T:Frederick James, 1904
T:Public Domain Courtesy of the Cyber Hymnal™
C:Frederick James, 1904
Z:Public Domain
Z:Courtesy of the Cyber Hymnal™
%%score ( 1 2 ) ( 3 4 )
L:1/8
Q:1/4=108
M:4/4
K:Ab
V:1 treble 
V:2 treble 
V:3 bass 
V:4 bass 
V:1
 [EA]2 [EA]2 [DA]2 (GF) | [DE]2 [Ed]2 [Ec]4 | [Ee]2 [DG]2 [CA]2 (Bc) | [Fe]2 [Fd]2 [DB]4 | %4
 [CA]2 [CA]2 [DA]2 (GF) | [DE]2 [Ed]2 [Ec]4 | [=Dc]2 [DB]2 [Ee]2 (cF) | [EG]2 [=DF]2 E4 | %8
 E2 [Ed]2 [Ec]3 [Ec] | F2 [Fe]2 [Fd]4 | [Ee]2 [EB]2 [Ec]2 (BA) | [EA]2 [EG]2 [EA]4 |] %12
V:2
 x6 D2 | x8 | x6 F2 | x8 | x6 D2 | x8 | x6 E2 | x4 E4 | E2 x6 | F2 x6 | x6 F2 | x8 |] %12
V:3
 [A,,C]2 [C,A,]2 [E,B,]2 B,2 | [G,B,]2 [E,G,]2 A,4 | [C,A,]2 [E,B,]2 [F,A,]2 [F,A,]2 | %3
 [B,,A,]2 [B,,A,]2 A,2 G,2 | [F,A,]2 [F,A,]2 [B,,B,]2 B,2 | [G,B,]2 ([F,A,][G,B,]) A,4 | %6
 [F,A,]2 [F,A,]2 [G,B,]2 [A,C]2 | B,2 (B,A,) [E,G,]4 | [G,B,]2 [E,G,]2 A,3 [A,C] | %9
 [=A,C]2 [F,A,]2 B,4 | [G,B,]2 [G,D]2 [A,C]2 [D,D]2 | [E,C]2 [E,B,]2 [A,,C]4 |] %12
V:4
 x6 (E,F,) | x4 A,4 | x8 | x4 E,4 | x6 (B,A,) | x4 A,4 | x8 | B,2 B,,2 x4 | x4 A,3 x | %9
 x4 (B,2 _A,2) | x8 | x8 |] %12

